src/topics/icons/neat.svg

<?xml version="1.0" encoding="UTF-8" standalone="no"?>
<svg width="256px" height="258px" viewBox="0 0 256 258" version="1.1" xmlns="http://www.w3.org/2000/svg" xmlns:xlink="http://www.w3.org/1999/xlink" preserveAspectRatio="xMidYMid">
	<g>
		<path d="M255.31761,235.497517 C255.31761,246.722634 248.523254,257.652354 237.297795,257.652354 L23.1278604,257.652354 C11.9024018,257.652354 0.972349966,246.722634 0.972349966,235.497517 L0.972349966,0.656244734 L255.31761,235.497517" fill="#53AEE0"></path>
		<path d="M0.972349966,235.742697 C0.972349966,236.392572 0.993028443,237.039493 1.04029353,237.683461 C1.76994834,248.193715 8.41364742,257.897534 18.9921652,257.897534 L233.1621,257.897534 C248.605968,257.897534 255.31761,249.523006 255.31761,235.742697 L255.31761,0.606027103 L0.972349966,235.742697" fill="#3D81A6"></path>
		<path d="M255.31761,0.606027103 L255.31761,235.742697 L128.198153,118.118236 L255.31761,0.606027103" fill="#2B5B75"></path>
	</g>
</svg>

<svg height="258" preserveAspectRatio="xMidYMid" viewBox="0 0 256 258" width="256" xmlns="http://www.w3.org/2000/svg"><path d="m255.31761 235.497517c0 11.225117-6.794356 22.154837-18.019815 22.154837h-214.1699346c-11.2254586 0-22.15551043-10.92972-22.15551043-22.154837v-234.84127227z" fill="#53aee0"/><path d="m.97234997 235.742697c0 .649875.02067847 1.296796.06794356 1.940764.72965481 10.510254 7.37335389 20.214073 17.95187167 20.214073h214.1699348c15.443868 0 22.15551-8.374528 22.15551-22.154837v-235.1366699z" fill="#3d81a6"/><path d="m255.31761.6060271v235.1366699l-127.119457-117.624461z" fill="#2b5b75"/></svg>
